web/ui/src/assets/svgs/sort/selected.svg

<?xml version="1.0" encoding="UTF-8"?>
<svg width="20px" height="20px" viewBox="0 0 20 20" version="1.1" xmlns="http://www.w3.org/2000/svg" xmlns:xlink="http://www.w3.org/1999/xlink">
    <title>选择</title>
    <g id="页面-1" stroke="none" stroke-width="1" fill="none" fill-rule="evenodd">
        <g id="建木自动化-组详情-添加项目" transform="translate(-615.000000, -472.000000)" fill-rule="nonzero">
            <g id="编组-26" transform="translate(309.000000, 100.000000)">
                <g id="选择" transform="translate(306.000000, 372.000000)">
                    <rect id="矩形" fill="#000000" opacity="0" x="0" y="0" width="20" height="20"></rect>
                    <path d="M19.9090909,20 C19.8181818,19.8636364 19.7272727,19.6818182 19.5909091,19.5909091 C13.1818182,13.1818182 6.77272727,6.77272727 0.363636367,0.409090918 C0.272727266,0.272727266 0.136363633,0.181818184 0,0.090909082 C0.136363633,0.0454545508 0.272727266,0 0.409090918,0 L20,0 L20,19.5909091 C20,19.7272727 19.9545454,19.8636363 19.9090909,20 Z M14.1050507,9.77138075 C15.5851854,8.291246 17.0653202,6.81111123 18.5454549,5.38383842 C18.3868691,5.17239059 18.1754212,4.96094277 17.9111114,4.59090908 C16.6424245,5.91245797 15.4265995,7.18114491 14.1579126,8.44983186 C13.4178452,7.70976449 12.7306398,7.02255905 12.0962963,6.33535362 L11.4090909,7.02255905 C12.3077442,7.92121229 13.2063974,8.87272749 14.1050507,9.77138075 L14.1050507,9.77138075 Z" id="形状" fill="#096DD9"></path>
                </g>
            </g>
        </g>
    </g>
</svg>

<svg height="20" viewBox="0 0 20 20" width="20" xmlns="http://www.w3.org/2000/svg"><g fill="none"><path d="m0 0h20v20h-20z" fill="#000" opacity="0"/><path d="m19.9090909 20c-.0909091-.1363636-.1818182-.3181818-.3181818-.4090909-6.4090909-6.4090909-12.81818183-12.81818183-19.22727273-19.18181818-.0909091-.13636365-.22727274-.22727274-.36363637-.31818184.13636363-.04545453.27272727-.09090908.40909092-.09090908h19.59090908v19.5909091c0 .1363636-.0454546.2727272-.0909091.4090909zm-5.8040402-10.22861925c1.4801347-1.48013475 2.9602695-2.96026952 4.4404042-4.38754233-.1585858-.21144783-.3700337-.42289565-.6343435-.79292934-1.2686869 1.32154889-2.4845119 2.59023583-3.7531988 3.85892278-.7400674-.74006737-1.4272728-1.42727281-2.0616163-2.11447824l-.6872054.68720543c.8986533.89865324 1.7973065 1.85016844 2.6959598 2.7488217z" fill="#096dd9"/></g></svg>
